X:199
T:The Blue Rose Waltz
R:waltz
C:Bruce Osborne - May 2002
Z:abc by bosborne@kos.net
M:3/4
L:1/8
K:Amaj
(3efg|ag fe ce|A3 A Bc|de fd cd|F3 A GF|\
EA ce ^df|ec Ac Ec|1 B3 A GF|E4:|2dB GB EG|A4
|:(3efg|ag a2 c'2|ae c2 BA|d3 c de|f3 a gf|\
ec Ac EG|Ac fc ec|1 B3 A GF|E4:|2B3 d cB|A4||
